Newaita-dark/apps/32/com.github.lainsce.yishu.svg

<svg height="32pt" viewBox="0 0 32 32" width="32pt" xmlns="http://www.w3.org/2000/svg" xmlns:xlink="http://www.w3.org/1999/xlink"><linearGradient id="a" gradientUnits="userSpaceOnUse" x1="15.876521" x2="15.876521" y1="28.033935" y2="29.35697887502"><stop offset="0" stop-opacity=".27451"/><stop offset="1" stop-opacity="0"/></linearGradient><linearGradient id="b"><stop offset="0" stop-opacity=".313725"/><stop offset=".222222" stop-opacity=".27451"/><stop offset="1" stop-opacity="0"/></linearGradient><radialGradient id="c" cx="450.90894" cy="189.57936" gradientTransform="matrix(.00000017 -.0781325 -.140638 -.0000001 52.130648 63.595334)" gradientUnits="userSpaceOnUse" r="21.166656" xlink:href="#b"/><radialGradient id="d" cx="450.90894" cy="189.57936" gradientTransform="matrix(-.00000017 .0781325 .140638 .0000001 -20.377614 -7.527479)" gradientUnits="userSpaceOnUse" r="21.166656" xlink:href="#b"/><radialGradient id="e" cx="450.90894" cy="189.57936" gradientTransform="matrix(-.00000017 -.0781325 .140638 -.0000001 -20.377614 63.595334)" gradientUnits="userSpaceOnUse" r="21.166656" xlink:href="#b"/><radialGradient id="f" cx="450.90894" cy="189.57936" gradientTransform="matrix(.00000017 .0781325 -.140638 .0000001 52.130646 -7.527479)" gradientUnits="userSpaceOnUse" r="21.166656" xlink:href="#b"/><linearGradient id="g" gradientUnits="userSpaceOnUse" x1="10.58434912498" x2="10.58434912498" y1="28.033934" y2="2.89610475004"><stop offset="0" stop-color="#9ccc65"/><stop offset="1" stop-color="#aed581"/></linearGradient><linearGradient id="h" gradientUnits="userSpaceOnUse" x1="15.876524" x2="15.876524" y1="28.033934" y2="2.89610412498"><stop offset="0" stop-color="#bdbdbd"/><stop offset="1" stop-color="#e0e0e0"/></linearGradient><path d="m5.953125 27.9375h19.847656v1.46875h-19.847656zm0 0" fill="url(#a)"/><path d="m25.800781 28.035156h2.644531v-1.324218h-2.644531zm0 0" fill="url(#c)"/><path d="m5.953125 28.035156h-2.644531v1.320313h2.644531zm0 0" fill="url(#d)"/><path d="m5.953125 28.035156h-2.644531v-1.324218h2.644531zm0 0" fill="url(#e)"/><path d="m25.800781 28.035156h2.644531v1.320313h-2.644531zm0 0" fill="url(#f)"/><path d="m4.628906 2.894531h22.492188c.730468 0 1.324218.59375 1.324218 1.324219v22.492188c0 .730468-.59375 1.324218-1.324218 1.324218h-22.492188c-.730468 0-1.320312-.59375-1.320312-1.324218v-22.492188c0-.730469.589844-1.324219 1.320312-1.324219zm0 0" fill="url(#g)"/><path d="m4.628906 2.894531c-.730468 0-1.320312.589844-1.320312 1.324219v.164062c0-.730468.589844-1.324218 1.320312-1.320312h22.492188c.734375-.003906 1.324218.589844 1.324218 1.320312v-.164062c0-.734375-.589843-1.324219-1.324218-1.324219zm0 0" fill="#e6e6e6" fill-opacity=".392157"/><path d="m4.628906 28.035156c-.730468 0-1.320312-.589844-1.320312-1.324218v-.164063c0 .730469.589844 1.320313 1.320312 1.320313h22.492188c.734375 0 1.324218-.589844 1.324218-1.320313v.164063c0 .734374-.589843 1.324218-1.324218 1.324218zm0 0" fill-opacity=".196078"/><path d="m74.055428-168.691922h359.840637c11.686384 0 21.185477 9.499093 21.185477 21.185477v359.840637c0 11.686384-9.499093 21.185477-21.185477 21.185477h-359.840637c-11.686384 0-21.122983-9.499093-21.122983-21.185477v-359.840637c0-11.686384 9.436599-21.185477 21.122983-21.185477zm0 0" fill="none" stroke="#212121" stroke-linecap="round" stroke-width="3" transform="matrix(.062506 0 0 .062506 0 13.438783)"/><path d="m23.789062 8.179688c-.433593.011718-.835937.238281-1.070312.601562l-7.09375 10.640625-5.484375-4.9375c-.347656-.320313-.84375-.429687-1.292969-.285156-.453125.144531-.792968.523437-.886718.988281-.097657.460938.0625.945312.417968 1.257812l6.617188 5.953126c.285156.253906.664062.375 1.042968.328124.382813-.050781.722657-.257812.933594-.578124l7.9375-11.90625c.28125-.410157.308594-.941407.070313-1.375-.234375-.4375-.695313-.703126-1.191407-.6875zm0 0" fill="url(#h)"/><path d="m23.789062 8.179688c-.433593.011718-.835937.238281-1.070312.601562l-7.09375 10.640625-5.484375-4.9375c-.417969-.382813-1.035156-.457031-1.535156-.179687-.496094.277343-.757813.84375-.648438 1.402343.089844-.46875.429688-.847656.882813-1 .453125-.148437.953125-.039062 1.300781.285157l5.484375 4.933593 7.09375-10.640625c.234375-.363281.636719-.589844 1.070312-.601562.644532-.015625 1.203126.433594 1.328126 1.0625.078124-.390625-.03125-.796875-.289063-1.101563-.257813-.304687-.640625-.476562-1.039063-.464843zm0 0" fill="#fff"/><path d="m25.042969 10.003906c-.035157.089844-.078125.171875-.132813.25l-7.9375 11.90625c-.210937.320313-.550781.53125-.933594.578125-.378906.046875-.757812-.070312-1.042968-.328125l-6.617188-5.953125c-.152344-.136719-.273437-.304687-.347656-.492187-.210938.519531-.070312 1.113281.347656 1.484375l6.617188 5.953125c.285156.257812.664062.375 1.042968.328125.382813-.046875.722657-.257813.933594-.578125l7.9375-11.90625c.25-.363282.300782-.832032.132813-1.242188zm0 0" fill-opacity=".235294"/><path d="m380.588656-84.137497c-6.936838.187482-13.373723 3.812136-17.123365 9.624081l-113.489163 170.233744-87.741621-78.992457c-5.561968-5.124511-13.498711-6.874343-20.685524-4.562064-7.249308 2.312279-12.686289 8.3742-14.186146 15.81099-1.56235 7.374296.999905 15.123556 6.686862 20.123078l105.86489 95.240905c4.562065 4.062112 10.623986 5.999427 16.685907 5.249499 6.124415-.812423 11.561396-4.124606 14.936074-9.249117l126.987873-190.48181c4.49957-6.561873 4.937028-15.061062 1.124892-21.997899-3.749642-6.999332-11.123937-11.248926-19.060679-10.99895zm0 0" fill="none" stroke="#212121" stroke-linecap="round" stroke-linejoin="round" stroke-width="3" transform="matrix(.062506 0 0 .062506 0 13.438783)"/></svg>

<?xml version="1.0" encoding="UTF-8"?>
<svg xmlns="http://www.w3.org/2000/svg" xmlns:xlink="http://www.w3.org/1999/xlink" width="32pt" height="32pt" viewBox="0 0 32 32" version="1.1">
<defs>
<linearGradient id="linear0" gradientUnits="userSpaceOnUse" x1="254" y1="233.5" x2="254" y2="254.66667" gradientTransform="matrix(0.062506,0,0,0.062506,-0.00000250024,13.438784)">
<stop offset="0" style="stop-color:rgb(0%,0%,0%);stop-opacity:0.27451;"/>
<stop offset="1" style="stop-color:rgb(0%,0%,0%);stop-opacity:0;"/>
</linearGradient>
<radialGradient id="radial0" gradientUnits="userSpaceOnUse" cx="450.90894" cy="189.57936" fx="450.90894" fy="189.57936" r="21.166656" gradientTransform="matrix(0.00000017417,-0.0781325,-0.140638,-0.000000101539,52.130648,63.595334)">
<stop offset="0" style="stop-color:rgb(0%,0%,0%);stop-opacity:0.313725;"/>
<stop offset="0.222222" style="stop-color:rgb(0%,0%,0%);stop-opacity:0.27451;"/>
<stop offset="1" style="stop-color:rgb(0%,0%,0%);stop-opacity:0;"/>
</radialGradient>
<radialGradient id="radial1" gradientUnits="userSpaceOnUse" cx="450.90894" cy="189.57936" fx="450.90894" fy="189.57936" r="21.166656" gradientTransform="matrix(-0.00000017417,0.0781325,0.140638,0.000000101539,-20.377614,-7.527479)">
<stop offset="0" style="stop-color:rgb(0%,0%,0%);stop-opacity:0.313725;"/>
<stop offset="0.222222" style="stop-color:rgb(0%,0%,0%);stop-opacity:0.27451;"/>
<stop offset="1" style="stop-color:rgb(0%,0%,0%);stop-opacity:0;"/>
</radialGradient>
<radialGradient id="radial2" gradientUnits="userSpaceOnUse" cx="450.90894" cy="189.57936" fx="450.90894" fy="189.57936" r="21.166656" gradientTransform="matrix(-0.00000017417,-0.0781325,0.140638,-0.000000101539,-20.377614,63.595334)">
<stop offset="0" style="stop-color:rgb(0%,0%,0%);stop-opacity:0.313725;"/>
<stop offset="0.222222" style="stop-color:rgb(0%,0%,0%);stop-opacity:0.27451;"/>
<stop offset="1" style="stop-color:rgb(0%,0%,0%);stop-opacity:0;"/>
</radialGradient>
<radialGradient id="radial3" gradientUnits="userSpaceOnUse" cx="450.90894" cy="189.57936" fx="450.90894" fy="189.57936" r="21.166656" gradientTransform="matrix(0.00000017417,0.0781325,-0.140638,0.000000101539,52.130646,-7.527479)">
<stop offset="0" style="stop-color:rgb(0%,0%,0%);stop-opacity:0.313725;"/>
<stop offset="0.222222" style="stop-color:rgb(0%,0%,0%);stop-opacity:0.27451;"/>
<stop offset="1" style="stop-color:rgb(0%,0%,0%);stop-opacity:0;"/>
</radialGradient>
<linearGradient id="linear1" gradientUnits="userSpaceOnUse" x1="169.33333" y1="233.5" x2="169.33333" y2="-168.66666" gradientTransform="matrix(0.062506,0,0,0.062506,0,13.438783)">
<stop offset="0" style="stop-color:rgb(61.176471%,80%,39.607843%);stop-opacity:1;"/>
<stop offset="1" style="stop-color:rgb(68.235294%,83.529412%,50.588235%);stop-opacity:1;"/>
</linearGradient>
<linearGradient id="linear2" gradientUnits="userSpaceOnUse" x1="254" y1="233.5" x2="254" y2="-168.66667" gradientTransform="matrix(0.062506,0,0,0.062506,0,13.438783)">
<stop offset="0" style="stop-color:rgb(74.117647%,74.117647%,74.117647%);stop-opacity:1;"/>
<stop offset="1" style="stop-color:rgb(87.843137%,87.843137%,87.843137%);stop-opacity:1;"/>
</linearGradient>
</defs>
<g id="surface1">
<path style=" stroke:none;fill-rule:nonzero;fill:url(#linear0);" d="M 5.953125 27.9375 L 25.800781 27.9375 L 25.800781 29.40625 L 5.953125 29.40625 Z M 5.953125 27.9375 "/>
<path style=" stroke:none;fill-rule:nonzero;fill:url(#radial0);" d="M 25.800781 28.035156 L 28.445312 28.035156 L 28.445312 26.710938 L 25.800781 26.710938 Z M 25.800781 28.035156 "/>
<path style=" stroke:none;fill-rule:nonzero;fill:url(#radial1);" d="M 5.953125 28.035156 L 3.308594 28.035156 L 3.308594 29.355469 L 5.953125 29.355469 Z M 5.953125 28.035156 "/>
<path style=" stroke:none;fill-rule:nonzero;fill:url(#radial2);" d="M 5.953125 28.035156 L 3.308594 28.035156 L 3.308594 26.710938 L 5.953125 26.710938 Z M 5.953125 28.035156 "/>
<path style=" stroke:none;fill-rule:nonzero;fill:url(#radial3);" d="M 25.800781 28.035156 L 28.445312 28.035156 L 28.445312 29.355469 L 25.800781 29.355469 Z M 25.800781 28.035156 "/>
<path style=" stroke:none;fill-rule:nonzero;fill:url(#linear1);" d="M 4.628906 2.894531 L 27.121094 2.894531 C 27.851562 2.894531 28.445312 3.488281 28.445312 4.21875 L 28.445312 26.710938 C 28.445312 27.441406 27.851562 28.035156 27.121094 28.035156 L 4.628906 28.035156 C 3.898438 28.035156 3.308594 27.441406 3.308594 26.710938 L 3.308594 4.21875 C 3.308594 3.488281 3.898438 2.894531 4.628906 2.894531 Z M 4.628906 2.894531 "/>
<path style=" stroke:none;fill-rule:nonzero;fill:rgb(90.196078%,90.196078%,90.196078%);fill-opacity:0.392157;" d="M 4.628906 2.894531 C 3.898438 2.894531 3.308594 3.484375 3.308594 4.21875 L 3.308594 4.382812 C 3.308594 3.652344 3.898438 3.058594 4.628906 3.0625 L 27.121094 3.0625 C 27.855469 3.058594 28.445312 3.652344 28.445312 4.382812 L 28.445312 4.21875 C 28.445312 3.484375 27.855469 2.894531 27.121094 2.894531 Z M 4.628906 2.894531 "/>
<path style=" stroke:none;fill-rule:nonzero;fill:rgb(0%,0%,0%);fill-opacity:0.196078;" d="M 4.628906 28.035156 C 3.898438 28.035156 3.308594 27.445312 3.308594 26.710938 L 3.308594 26.546875 C 3.308594 27.277344 3.898438 27.867188 4.628906 27.867188 L 27.121094 27.867188 C 27.855469 27.867188 28.445312 27.277344 28.445312 26.546875 L 28.445312 26.710938 C 28.445312 27.445312 27.855469 28.035156 27.121094 28.035156 Z M 4.628906 28.035156 "/>
<path style="fill:none;stroke-width:3;stroke-linecap:round;stroke-linejoin:miter;stroke:rgb(12.941176%,12.941176%,12.941176%);stroke-opacity:1;stroke-miterlimit:4;" d="M 74.055428 -168.691922 L 433.896065 -168.691922 C 445.582449 -168.691922 455.081542 -159.192829 455.081542 -147.506445 L 455.081542 212.334192 C 455.081542 224.020576 445.582449 233.519669 433.896065 233.519669 L 74.055428 233.519669 C 62.369044 233.519669 52.932445 224.020576 52.932445 212.334192 L 52.932445 -147.506445 C 52.932445 -159.192829 62.369044 -168.691922 74.055428 -168.691922 Z M 74.055428 -168.691922 " transform="matrix(0.062506,0,0,0.062506,0,13.438783)"/>
<path style=" stroke:none;fill-rule:nonzero;fill:url(#linear2);" d="M 23.789062 8.179688 C 23.355469 8.191406 22.953125 8.417969 22.71875 8.78125 L 15.625 19.421875 L 10.140625 14.484375 C 9.792969 14.164062 9.296875 14.054688 8.847656 14.199219 C 8.394531 14.34375 8.054688 14.722656 7.960938 15.1875 C 7.863281 15.648438 8.023438 16.132812 8.378906 16.445312 L 14.996094 22.398438 C 15.28125 22.652344 15.660156 22.773438 16.039062 22.726562 C 16.421875 22.675781 16.761719 22.46875 16.972656 22.148438 L 24.910156 10.242188 C 25.191406 9.832031 25.21875 9.300781 24.980469 8.867188 C 24.746094 8.429688 24.285156 8.164062 23.789062 8.179688 Z M 23.789062 8.179688 "/>
<path style=" stroke:none;fill-rule:nonzero;fill:rgb(100%,100%,100%);fill-opacity:1;" d="M 23.789062 8.179688 C 23.355469 8.191406 22.953125 8.417969 22.71875 8.78125 L 15.625 19.421875 L 10.140625 14.484375 C 9.722656 14.101562 9.105469 14.027344 8.605469 14.304688 C 8.109375 14.582031 7.847656 15.148438 7.957031 15.707031 C 8.046875 15.238281 8.386719 14.859375 8.839844 14.707031 C 9.292969 14.558594 9.792969 14.667969 10.140625 14.992188 L 15.625 19.925781 L 22.71875 9.285156 C 22.953125 8.921875 23.355469 8.695312 23.789062 8.683594 C 24.433594 8.667969 24.992188 9.117188 25.117188 9.746094 C 25.195312 9.355469 25.085938 8.949219 24.828125 8.644531 C 24.570312 8.339844 24.1875 8.167969 23.789062 8.179688 Z M 23.789062 8.179688 "/>
<path style=" stroke:none;fill-rule:nonzero;fill:rgb(0%,0%,0%);fill-opacity:0.235294;" d="M 25.042969 10.003906 C 25.007812 10.09375 24.964844 10.175781 24.910156 10.253906 L 16.972656 22.160156 C 16.761719 22.480469 16.421875 22.691406 16.039062 22.738281 C 15.660156 22.785156 15.28125 22.667969 14.996094 22.410156 L 8.378906 16.457031 C 8.226562 16.320312 8.105469 16.152344 8.03125 15.964844 C 7.820312 16.484375 7.960938 17.078125 8.378906 17.449219 L 14.996094 23.402344 C 15.28125 23.660156 15.660156 23.777344 16.039062 23.730469 C 16.421875 23.683594 16.761719 23.472656 16.972656 23.152344 L 24.910156 11.246094 C 25.160156 10.882812 25.210938 10.414062 25.042969 10.003906 Z M 25.042969 10.003906 "/>
<path style="fill:none;stroke-width:3;stroke-linecap:round;stroke-linejoin:round;stroke:rgb(12.941176%,12.941176%,12.941176%);stroke-opacity:1;stroke-miterlimit:4;" d="M 380.588656 -84.137497 C 373.651818 -83.950015 367.214933 -80.325361 363.465291 -74.513416 L 249.976128 95.720328 L 162.234507 16.727871 C 156.672539 11.60336 148.735796 9.853528 141.548983 12.165807 C 134.299675 14.478086 128.862694 20.540007 127.362837 27.976797 C 125.800487 35.351093 128.362742 43.100353 134.049699 48.099875 L 239.914589 143.34078 C 244.476654 147.402892 250.538575 149.340207 256.600496 148.590279 C 262.724911 147.777856 268.161892 144.465673 271.53657 139.341162 L 398.524443 -51.140648 C 403.024013 -57.702521 403.461471 -66.20171 399.649335 -73.138547 C 395.899693 -80.137879 388.525398 -84.387473 380.588656 -84.137497 Z M 380.588656 -84.137497 " transform="matrix(0.062506,0,0,0.062506,0,13.438783)"/>
</g>
</svg>
